X:1
T:Somewhere In The Night
T:Somewhere In The Night
C:Billy May
Z:All Rights Reserved
L:1/8
M:4/4
K:G
V:1 treble nm="Piano" snm="Pno."
%%MIDI program 0
%%MIDI control 7 100
%%MIDI control 10 64
V:1
"Am7" B,CEB A4- | A4"D7" B2 A2 |"G" (3F2 G2 A2 F3 D |"E7b9" =F8 |"Am7" B,CEB A4- | %5
w: Some- where in the night,|_ chas- ing|sha- dows a- round the|bend,|~~Some- where in the night|
 A4"Cm7" _B2"F7" c2 |"Bb" (3A2 _B2 c2 A3 =F |"Em7""A7" A8 |"Gm7" A,_B,DA G4- | G4"C7" A3 G | %10
w: _ chas- ing|rain- bows that have no|end.|In the mis- ty night|_ you are|
"F" (3E2 =F2 G2 E3 C |"Bm7" E4-"E7" E3 =F |"A" (3^F2 ^G2 A2 F3 ^C |"B9" ^EF^GA F3 ^C | %14
w: mine and you hold me|fast, _ But|dreams have a way of|cal- ling it a day. They|
"Bm" ^CD B,4 F2 |"E" ^CD B,4"E+" =C2 |"Am7" B,CEB A4- | A4"D7" B2 A2 |"G" (3F2 G2 A2 F3 D | %19
w: sel- dom last, my|dreams have passed. But|in my lone- ly flight|_ I'll keep|search- ing till time is|
"E7b9" =F6"E7" E2 |"Am7" B,CEB"F7" A2"E7" B2 |"Eb7" c4"D7" B4 |"G" d8- | d8 |] %24
w: through, Just|some- where in the night till|I find|you.|_|

